static/img/logos/webpack.svg

<svg fill="none" height="32" viewBox="0 0 32 32" width="32" xmlns="http://www.w3.org/2000/svg" xmlns:xlink="http://www.w3.org/1999/xlink"><clipPath id="a"><path d="m1 0h29v32h-29z"/></clipPath><g clip-path="url(#a)"><path d="m15.5 0 14.5 7.99909v16.00181l-14.5 7.9991-14.5-7.9991v-16.00181z" fill="#fff"/><path d="m27.411 23.4491-11.4314 6.3072v-4.9113l7.1226-3.8223zm.7831-.6907v-13.18803l-4.1814 2.35693v8.4778zm-24.65004.6907 11.43144 6.3072v-4.9113l-7.1264-3.8223zm-.78307-.6907v-13.18803l4.18139 2.35693v8.4778zm.49082-14.04312 11.72369-6.46797v4.74683l-7.51232 4.03056-.05995.0329zm24.45139 0-11.7236-6.46797v4.74683l7.5123 4.02696.0599.0329z" fill="#8ed6fb"/><path d="m14.9755 23.7269-7.02897-3.7711v-7.4656l7.02897 3.9575zm1.0041 0 7.0289-3.7675v-7.4692l-7.0289 3.9575zm-7.55723-12.0991 7.05513-3.7821 7.0552 3.7821-7.0552 3.9722z" fill="#1c78c0"/></g></svg>

<svg width="32" height="32" viewBox="0 0 32 32" fill="none" xmlns="http://www.w3.org/2000/svg">
<g clip-path="url(#clip0_4394_3)">
<path d="M15.5 0L30 7.99909V24.0009L15.5 32L1 24.0009V7.99909L15.5 0Z" fill="white"/>
<path d="M27.411 23.4491L15.9796 29.7563V24.845L23.1022 21.0227L27.411 23.4491ZM28.1941 22.7584V9.57037L24.0127 11.9273V20.4051L28.1941 22.7584ZM3.54406 23.4491L14.9755 29.7563V24.845L7.8491 21.0227L3.54406 23.4491ZM2.76099 22.7584V9.57037L6.94238 11.9273V20.4051L2.76099 22.7584ZM3.25181 8.71528L14.9755 2.24731V6.99414L7.46318 11.0247L7.40323 11.0576L3.25181 8.71528ZM27.7032 8.71528L15.9796 2.24731V6.99414L23.4919 11.0211L23.5518 11.054L27.7032 8.71528Z" fill="#8ED6FB"/>
<path d="M14.9755 23.7269L7.94653 19.9558V12.4902L14.9755 16.4477V23.7269ZM15.9796 23.7269L23.0085 19.9594V12.4902L15.9796 16.4477V23.7269ZM8.42237 11.6278L15.4775 7.8457L22.5327 11.6278L15.4775 15.6L8.42237 11.6278Z" fill="#1C78C0"/>
</g>
<defs>
<clipPath id="clip0_4394_3">
<rect width="29" height="32" fill="white" transform="translate(1)"/>
</clipPath>
</defs>
</svg>
